assets/img/youtube-brands.svg

<svg xmlns="http://www.w3.org/2000/svg" viewBox="0 0 576 512"><!--! Font Awesome Pro 6.0.0 by @fontawesome - https://fontawesome.com License - https://fontawesome.com/license (Commercial License) Copyright 2022 Fonticons, Inc. --><path d="M549.655 124.083c-6.281-23.65-24.787-42.276-48.284-48.597C458.781 64 288 64 288 64S117.22 64 74.629 75.486c-23.497 6.322-42.003 24.947-48.284 48.597-11.412 42.867-11.412 132.305-11.412 132.305s0 89.438 11.412 132.305c6.281 23.65 24.787 41.5 48.284 47.821C117.22 448 288 448 288 448s170.78 0 213.371-11.486c23.497-6.321 42.003-24.171 48.284-47.821 11.412-42.867 11.412-132.305 11.412-132.305s0-89.438-11.412-132.305zm-317.51 213.508V175.185l142.739 81.205-142.739 81.201z"/></svg>

<?xml version="1.0" encoding="utf-8"?>
<svg width="576px" height="512px" viewBox="0 0 576 512" version="1.1" xmlns:xlink="http://www.w3.org/1999/xlink" xmlns="http://www.w3.org/2000/svg">
  <defs>
    <path d="M0 0L576 0L576 512L0 512L0 0Z" id="path_1" />
    <clipPath id="mask_1">
      <use xlink:href="#path_1" />
    </clipPath>
  </defs>
  <g id="youtube-brands">
    <path d="M0 0L576 0L576 512L0 512L0 0Z" id="Background" fill="none" fill-rule="evenodd" stroke="none" />
    <g clip-path="url(#mask_1)">
      <path d="M549.655 124.083C543.374 100.433 524.868 81.807 501.371 75.486C458.781 64 288 64 288 64C288 64 117.22 64 74.629 75.486C51.132 81.808 32.626 100.433 26.345 124.083C14.933 166.95 14.933 256.388 14.933 256.388C14.933 256.388 14.933 345.826 26.345 388.693C32.626 412.343 51.132 430.193 74.629 436.514C117.22 448 288 448 288 448C288 448 458.78 448 501.371 436.514C524.868 430.193 543.374 412.343 549.655 388.693C561.067 345.826 561.067 256.388 561.067 256.388C561.067 256.388 561.067 166.95 549.655 124.083L549.655 124.083ZM232.145 337.591L232.145 175.185L374.884 256.39L232.145 337.591L232.145 337.591Z" id="Shape" fill="#2359E3" fill-rule="evenodd" stroke="none" />
    </g>
  </g>
</svg>
